data/ojuju.svg

<svg width="32.032" height="19.684" viewBox="0 0 32.032 19.684" xmlns="http://www.w3.org/2000/svg"><path transform="translate(0 15.82) scale(.014 -.014)" d="m328-15q-88 0-149.5 39.5t-94 120.5-32.5 205q0 125 32.5 205.5t94 120 149.5 39.5q89 0 150-39.5t93.5-120 32.5-205.5q0-124-32-205t-93.5-120.5-150.5-39.5zm0 70q78 0 133 32.5t84.5 98 29.5 164.5-29.5 164.5-84.5 98-133 32.5-133-32.5-84-98-29-164.5 29-164.5 84-98 133-32.5z"/><path transform="translate(9.184 15.82) scale(.014 -.014)" d="m161 604q-48 0-48 48 0 50 48 50 45 0 45-50 0-48-45-48zm-184-720q15-8 39.5-16t47.5-8q13 0 25 2.5t22 6.5q21 11 33.5 38t12.5 77q0 125-0.5 205.5t-1 126-2 66.5-3.5 27.5-5 9.5q-4 4-13 5t-34 1q-9 0-19 0t-22 0v58h128q-1-15-1.5-45t-0.5-68 0-77 0-71 0-49q0-34 0-57t0-45 0-51.5 0-75.5q0-55-15.5-85.5t-42-42.5-58.5-12q-23 0-46 6t-44 13z"/><path transform="translate(12.936 15.82) scale(.014 -.014)" d="m238-15q-50 0-85.5 20.5t-54 58.5-18.5 86q0 45 0 77t0 58-0.5 53-1.5 61-2 84h36q-1-49-2-82t-1.5-57.5-0.5-45.5 0-44.5 0-57.5q0-43 11.5-72t32-44 46-21.5 54.5-6.5q49 0 85 13.5t59 38.5 33.5 61 10.5 79q0 24 0 41.5t-0.5 40-1.5 59.5-2 98h36q-1-72-2-119.5t-1.5-78-0.5-50.5 0-35.5 0-33.5q0-24 0-42t0.5-35 1-38 1.5-51h-35q2 17 2 30t0 23q0 27-1 35.5t-7 8.5q-5 0-9-4.5t-16-21.5q-10-15-30.5-35.5t-53.5-35.5-83-15z"/><path transform="translate(20.608 15.82) scale(.014 -.014)" d="m161 604q-48 0-48 48 0 50 48 50 45 0 45-50 0-48-45-48zm-184-720q15-8 39.5-16t47.5-8q13 0 25 2.5t22 6.5q21 11 33.5 38t12.5 77q0 125-0.5 205.5t-1 126-2 66.5-3.5 27.5-5 9.5q-4 4-13 5t-34 1q-9 0-19 0t-22 0v58h128q-1-15-1.5-45t-0.5-68 0-77 0-71 0-49q0-34 0-57t0-45 0-51.5 0-75.5q0-55-15.5-85.5t-42-42.5-58.5-12q-23 0-46 6t-44 13z"/><path transform="translate(24.36 15.82) scale(.014 -.014)" d="m238-15q-50 0-85.5 20.5t-54 58.5-18.5 86q0 45 0 77t0 58-0.5 53-1.5 61-2 84h36q-1-49-2-82t-1.5-57.5-0.5-45.5 0-44.5 0-57.5q0-43 11.5-72t32-44 46-21.5 54.5-6.5q49 0 85 13.5t59 38.5 33.5 61 10.5 79q0 24 0 41.5t-0.5 40-1.5 59.5-2 98h36q-1-72-2-119.5t-1.5-78-0.5-50.5 0-35.5 0-33.5q0-24 0-42t0.5-35 1-38 1.5-51h-35q2 17 2 30t0 23q0 27-1 35.5t-7 8.5q-5 0-9-4.5t-16-21.5q-10-15-30.5-35.5t-53.5-35.5-83-15z"/></svg>

<?xml version="1.0" encoding="utf-8" ?>
<svg baseProfile="tiny" height="100%" version="1.2" width="100%" xmlns="http://www.w3.org/2000/svg" xmlns:ev="http://www.w3.org/2001/xml-events" xmlns:xlink="http://www.w3.org/1999/xlink"><defs /><g><path d="M328 -15Q240 -15 178.5 24.5Q117 64 84.5 145.0Q52 226 52 350Q52 475 84.5 555.5Q117 636 178.5 675.5Q240 715 328 715Q417 715 478.0 675.5Q539 636 571.5 555.5Q604 475 604 350Q604 226 572.0 145.0Q540 64 478.5 24.5Q417 -15 328 -15ZM328 55Q406 55 461.0 87.5Q516 120 545.5 185.5Q575 251 575 350Q575 449 545.5 514.5Q516 580 461.0 612.5Q406 645 328 645Q250 645 195.0 612.5Q140 580 111.0 514.5Q82 449 82 350Q82 251 111.0 185.5Q140 120 195.0 87.5Q250 55 328 55Z" transform="translate(0.0, 72) scale(0.072, -0.072)" /><path d="M161 604Q113 604 113 652Q113 702 161 702Q206 702 206 652Q206 604 161 604ZM-23 -116Q-8 -124 16.5 -132.0Q41 -140 64 -140Q77 -140 89.0 -137.5Q101 -135 111 -131Q132 -120 144.5 -93.0Q157 -66 157 -16Q157 109 156.5 189.5Q156 270 155.5 315.5Q155 361 153.5 382.0Q152 403 150.0 409.5Q148 416 145 419Q141 423 132.0 424.0Q123 425 98 425Q89 425 79.0 425.0Q69 425 57 425V483H185Q184 468 183.5 438.0Q183 408 183.0 370.0Q183 332 183.0 293.0Q183 254 183.0 222.0Q183 190 183 173Q183 139 183.0 116.0Q183 93 183.0 71.0Q183 49 183.0 19.5Q183 -10 183 -56Q183 -111 167.5 -141.5Q152 -172 125.5 -184.0Q99 -196 67 -196Q44 -196 21.0 -190.0Q-2 -184 -23 -177Z" transform="translate(47.232, 72) scale(0.072, -0.072)" /><path d="M238 -15Q188 -15 152.5 5.5Q117 26 98.5 64.0Q80 102 80 150Q80 195 80.0 227.0Q80 259 80.0 285.0Q80 311 79.5 338.0Q79 365 78.0 399.0Q77 433 76 483H112Q111 434 110.0 401.0Q109 368 108.5 343.5Q108 319 108.0 298.0Q108 277 108.0 253.5Q108 230 108 196Q108 153 119.5 124.0Q131 95 151.5 80.0Q172 65 197.5 58.5Q223 52 252 52Q301 52 337.0 65.5Q373 79 396.0 104.0Q419 129 429.5 165.0Q440 201 440 244Q440 268 440.0 285.5Q440 303 439.5 325.5Q439 348 438.0 385.0Q437 422 436 483H472Q471 411 470.0 363.5Q469 316 468.5 285.5Q468 255 468.0 235.0Q468 215 468.0 199.5Q468 184 468 166Q468 142 468.0 124.0Q468 106 468.5 89.0Q469 72 469.5 51.0Q470 30 471 0H436Q438 17 438.0 30.0Q438 43 438 53Q438 80 437.0 88.5Q436 97 430 97Q425 97 421.0 92.5Q417 88 405 71Q395 56 374.5 35.5Q354 15 321.0 0.0Q288 -15 238 -15Z" transform="translate(66.52799999999999, 72) scale(0.072, -0.072)" /><path d="M161 604Q113 604 113 652Q113 702 161 702Q206 702 206 652Q206 604 161 604ZM-23 -116Q-8 -124 16.5 -132.0Q41 -140 64 -140Q77 -140 89.0 -137.5Q101 -135 111 -131Q132 -120 144.5 -93.0Q157 -66 157 -16Q157 109 156.5 189.5Q156 270 155.5 315.5Q155 361 153.5 382.0Q152 403 150.0 409.5Q148 416 145 419Q141 423 132.0 424.0Q123 425 98 425Q89 425 79.0 425.0Q69 425 57 425V483H185Q184 468 183.5 438.0Q183 408 183.0 370.0Q183 332 183.0 293.0Q183 254 183.0 222.0Q183 190 183 173Q183 139 183.0 116.0Q183 93 183.0 71.0Q183 49 183.0 19.5Q183 -10 183 -56Q183 -111 167.5 -141.5Q152 -172 125.5 -184.0Q99 -196 67 -196Q44 -196 21.0 -190.0Q-2 -184 -23 -177Z" transform="translate(105.98399999999998, 72) scale(0.072, -0.072)" /><path d="M238 -15Q188 -15 152.5 5.5Q117 26 98.5 64.0Q80 102 80 150Q80 195 80.0 227.0Q80 259 80.0 285.0Q80 311 79.5 338.0Q79 365 78.0 399.0Q77 433 76 483H112Q111 434 110.0 401.0Q109 368 108.5 343.5Q108 319 108.0 298.0Q108 277 108.0 253.5Q108 230 108 196Q108 153 119.5 124.0Q131 95 151.5 80.0Q172 65 197.5 58.5Q223 52 252 52Q301 52 337.0 65.5Q373 79 396.0 104.0Q419 129 429.5 165.0Q440 201 440 244Q440 268 440.0 285.5Q440 303 439.5 325.5Q439 348 438.0 385.0Q437 422 436 483H472Q471 411 470.0 363.5Q469 316 468.5 285.5Q468 255 468.0 235.0Q468 215 468.0 199.5Q468 184 468 166Q468 142 468.0 124.0Q468 106 468.5 89.0Q469 72 469.5 51.0Q470 30 471 0H436Q438 17 438.0 30.0Q438 43 438 53Q438 80 437.0 88.5Q436 97 430 97Q425 97 421.0 92.5Q417 88 405 71Q395 56 374.5 35.5Q354 15 321.0 0.0Q288 -15 238 -15Z" transform="translate(125.27999999999997, 72) scale(0.072, -0.072)" /></g></svg>
